X: 33547
T: Rake, The
R: hornpipe
M: 4/4
K: Gmajor
|:BGDG BGdB|(3gfg (3agf gdBG|FEFG AB (3cBA|d^cde fdcA|
BGDG BGdB|(3gfg (3agf gdBG|(3Bcd gd cAFG|AGGF G2 (3d^c=c:|
F2D2 D2 dc|B2G2G2 (3d^c=c|F2D2 d^ced|fed^c d2 (3d^c=c|
F2D2 D2 dc|B2G2G2 (3d^c=c|FAdf ed^ce|(3ded (3=cdc (3BcB A2|
BGDG BGdB|(3gfg (3agf gdBG|FEFG AB (3cBA|d^cde fdcA|
BGDG BGdB|(3gfg (3agf gdBG|(3Bcd gd cAFG|AGGF G4|

